icons/Others/leaf-line.svg

<svg viewBox="0 0 24 24" xmlns="http://www.w3.org/2000/svg"><path d="M20.998 3V5C20.998 14.6274 15.6255 19 8.99805 19L5.24077 18.9999C5.0786 19.912 4.99805 20.907 4.99805 22H2.99805C2.99805 20.6373 3.11376 19.3997 3.34381 18.2682C3.1133 16.9741 2.99805 15.2176 2.99805 13C2.99805 7.47715 7.4752 3 12.998 3C14.998 3 16.998 4 20.998 3ZM12.998 5C8.57977 5 4.99805 8.58172 4.99805 13C4.99805 13.3624 5.00125 13.7111 5.00759 14.0459C6.26198 12.0684 8.09902 10.5048 10.5019 9.13176L11.4942 10.8682C8.6393 12.4996 6.74554 14.3535 5.77329 16.9998L8.99805 17C15.0132 17 18.8692 13.0269 18.9949 5.38766C17.6229 5.52113 16.3481 5.436 14.7754 5.20009C13.6243 5.02742 13.3988 5 12.998 5Z"/></svg>

<svg xmlns="http://www.w3.org/2000/svg" viewBox="0 0 24 24">
    <g>
        <path fill="none" d="M0 0H24V24H0z"/>
        <path d="M21 3v2c0 9.627-5.373 14-12 14H5.243C5.08 19.912 5 20.907 5 22H3c0-1.363.116-2.6.346-3.732C3.116 16.974 3 15.218 3 13 3 7.477 7.477 3 13 3c2 0 4 1 8 0zm-8 2c-4.418 0-8 3.582-8 8 0 .362.003.711.01 1.046 1.254-1.978 3.091-3.541 5.494-4.914l.992 1.736C8.641 12.5 6.747 14.354 5.776 17H9c6.015 0 9.871-3.973 9.997-11.612-1.372.133-2.647.048-4.22-.188C13.627 5.027 13.401 5 13 5z"/>
    </g>
</svg>
